public/logos/WS.svg

<?xml version="1.0" encoding="UTF-8"?>
<svg xmlns="http://www.w3.org/2000/svg" xmlns:xlink="http://www.w3.org/1999/xlink" width="176.16pt" height="25.42pt" viewBox="0 0 176.16 25.42" version="1.1">
<defs>
<clipPath id="clip1">
  <path d="M 157 6 L 176.160156 6 L 176.160156 22 L 157 22 Z M 157 6 "/>
</clipPath>
<clipPath id="clip2">
  <path d="M 146 12 L 163 12 L 163 25.421875 L 146 25.421875 Z M 146 12 "/>
</clipPath>
</defs>
<g id="surface1">
<path style=" stroke:none;fill-rule:nonzero;fill:rgb(29.80957%,66.601562%,64.256287%);fill-opacity:1;" d="M 96.328125 10.84375 L 92.976562 18.398438 C 92.324219 19.945312 89.945312 21.558594 87.769531 21.558594 C 86.496094 21.558594 85.390625 21.476562 84.546875 21.324219 L 83.664062 23.417969 C 84.890625 23.527344 86.480469 23.675781 88.101562 23.675781 C 95.574219 23.675781 99.167969 21.191406 100.023438 19.152344 L 103.691406 10.84375 L 96.328125 10.84375 "/>
<path style=" stroke:none;fill-rule:nonzero;fill:rgb(29.80957%,66.601562%,64.256287%);fill-opacity:1;" d="M 125.308594 10.84375 L 105.859375 10.84375 L 101.878906 20.332031 L 121.761719 20.332031 L 122.515625 18.535156 L 109.984375 18.535156 L 110.878906 16.394531 L 122.308594 16.394531 L 123.066406 14.59375 L 111.644531 14.59375 L 112.464844 12.726562 L 129.824219 12.726562 L 126.621094 20.332031 L 133.984375 20.332031 L 137.179688 12.726562 L 143.984375 12.726562 L 144.769531 10.84375 L 125.308594 10.84375 "/>
<path style=" stroke:none;fill-rule:nonzero;fill:rgb(14.109802%,25.87738%,42.747498%);fill-opacity:1;" d="M 40.132812 16.441406 L 51.835938 16.441406 L 52.605469 14.609375 L 40.898438 14.609375 L 41.746094 12.691406 L 54.140625 12.691406 L 54.898438 10.753906 L 35.507812 10.753906 L 37.410156 8.917969 L 30.082031 8.917969 L 22.753906 17.074219 L 22.789062 10.753906 L 13.234375 10.753906 L 7.660156 16.757812 L 7.691406 10.753906 L 0 10.753906 L 2.199219 20.472656 L 9.964844 20.472656 L 16.832031 13.019531 L 16.914062 13.019531 L 17.789062 20.472656 L 25.476562 20.472656 L 34.625 11.621094 L 30.902344 20.472656 L 51.269531 20.472656 L 52.035156 18.550781 L 39.199219 18.550781 L 40.132812 16.441406 "/>
<path style=" stroke:none;fill-rule:nonzero;fill:rgb(14.109802%,25.87738%,42.747498%);fill-opacity:1;" d="M 73.230469 10.753906 C 71.726562 10.652344 69.980469 10.589844 68.1875 10.589844 C 62.523438 10.589844 55.605469 11.234375 54.628906 13.570312 C 53.140625 17.105469 66.984375 15.960938 66.21875 17.773438 C 65.894531 18.554688 63.5625 18.71875 61.167969 18.71875 C 58.050781 18.71875 55.449219 18.4375 53.660156 18.078125 L 52.113281 20.214844 C 54.511719 20.5 57.730469 20.632812 60.359375 20.632812 C 66.636719 20.632812 73.074219 19.957031 74.132812 17.441406 C 75.609375 13.929688 61.804688 14.992188 62.46875 13.425781 C 62.824219 12.574219 66.003906 12.519531 67.902344 12.519531 C 70.046875 12.519531 72.175781 12.65625 73.992188 12.960938 L 74.175781 12.691406 L 78.886719 12.691406 L 75.609375 20.472656 L 83.144531 20.472656 L 86.414062 12.691406 L 93.378906 12.691406 L 94.183594 10.753906 L 73.230469 10.753906 "/>
<path style=" stroke:none;fill-rule:nonzero;fill:rgb(29.80957%,66.601562%,64.256287%);fill-opacity:1;" d="M 147.59375 13.4375 L 148.257812 12.773438 L 148.425781 8.613281 L 152.085938 9.445312 L 154.25 7.449219 L 156.910156 11.273438 L 147.59375 13.4375 "/>
<path style=" stroke:none;fill-rule:nonzero;fill:rgb(29.80957%,66.601562%,64.256287%);fill-opacity:1;" d="M 157.246094 10.941406 L 158.910156 2.953125 L 160.90625 4.617188 L 161.570312 4.285156 L 166.066406 0.00390625 L 166.730469 4.875 L 167.394531 4.875 L 170.726562 3.167969 L 167.5625 8.886719 L 157.246094 10.941406 "/>
<g clip-path="url(#clip1)" clip-rule="nonzero">
<path style=" stroke:none;fill-rule:nonzero;fill:rgb(29.80957%,66.601562%,64.256287%);fill-opacity:1;" d="M 167.699219 9.277344 L 172 6.949219 L 172 9.445312 L 176.160156 8.945312 L 173 12.605469 L 173 13.105469 L 173.992188 13.769531 L 165 19.097656 L 165 21.59375 L 157.945312 20.59375 L 167.699219 9.277344 "/>
</g>
<g clip-path="url(#clip2)" clip-rule="nonzero">
<path style=" stroke:none;fill-rule:nonzero;fill:rgb(14.109802%,25.87738%,42.747498%);fill-opacity:1;" d="M 146.429688 13.605469 L 162.570312 12.105469 L 155.082031 25.421875 L 155.414062 20.59375 L 149.089844 21.59375 L 150.921875 18.597656 L 146.429688 13.605469 "/>
</g>
</g>
</svg>

<svg xmlns="http://www.w3.org/2000/svg" width="234.88" height="33.893" viewBox="0 0 176.16 25.42"><defs><clipPath id="a"><path d="M157 6h19.16v16H157Zm0 0"/></clipPath><clipPath id="b"><path d="M146 12h17v13.422h-17Zm0 0"/></clipPath></defs><path d="m96.328 10.844-3.351 7.554c-.653 1.547-3.032 3.16-5.207 3.16-1.274 0-2.38-.081-3.223-.234l-.883 2.094c1.227.11 2.816.258 4.438.258 7.472 0 11.066-2.485 11.921-4.524l3.668-8.308zM125.309 10.844h-19.45l-3.98 9.488h19.883l.754-1.797h-12.532l.895-2.14h11.43l.757-1.801h-11.421l.82-1.867h17.36l-3.204 7.605h7.363l3.196-7.605h6.804l.786-1.883z" style="stroke:none;fill-rule:nonzero;fill:#4caaa4;fill-opacity:1"/><path d="M40.133 16.441h11.703l.77-1.832H40.897l.848-1.918h12.395l.757-1.937h-19.39l1.902-1.836h-7.328l-7.328 8.156.035-6.32h-9.555L7.66 16.758l.031-6.004H0l2.2 9.719h7.765l6.867-7.453h.082l.875 7.453h7.688l9.148-8.852-3.723 8.852H51.27l.765-1.922H39.2zM73.23 10.754a76 76 0 0 0-5.043-.164c-5.664 0-12.582.644-13.558 2.98-1.488 3.535 12.355 2.39 11.59 4.203-.324.782-2.656.946-5.051.946-3.117 0-5.719-.282-7.508-.64l-1.547 2.136c2.399.285 5.617.418 8.246.418 6.278 0 12.715-.676 13.774-3.192 1.476-3.511-12.328-2.449-11.664-4.015.355-.852 3.535-.906 5.433-.906 2.145 0 4.274.136 6.09.44l.184-.269h4.71l-3.277 7.782h7.536l3.27-7.782h6.964l.805-1.937z" style="stroke:none;fill-rule:nonzero;fill:#24426d;fill-opacity:1"/><path d="m147.594 13.438.664-.665.168-4.16 3.66.832 2.164-1.996 2.66 3.824zM157.246 10.941l1.664-7.988 1.996 1.664.664-.332 4.496-4.281.664 4.871h.665l3.332-1.707-3.165 5.719z" style="stroke:none;fill-rule:nonzero;fill:#4caaa4;fill-opacity:1"/><g clip-path="url(#a)"><path d="M167.7 9.277 172 6.95v2.496l4.16-.5-3.16 3.66v.5l.992.665L165 19.098v2.496l-7.055-1z" style="stroke:none;fill-rule:nonzero;fill:#4caaa4;fill-opacity:1"/></g><g clip-path="url(#b)"><path d="m146.43 13.605 16.14-1.5-7.488 13.317.332-4.828-6.324 1 1.832-2.996z" style="stroke:none;fill-rule:nonzero;fill:#24426d;fill-opacity:1"/></g></svg>
